lc_editor/assets/luts/motovlog.cube
TITLE "motovlog"
LUT_3D_SIZE 5
0.000000 0.015000 0.100000
0.000000 0.016594 0.092028
0.035982 0.018189 0.084055
0.352675 0.019783 0.076082
0.669368 0.021378 0.068110
0.000000 0.171561 0.073180
0.157469 0.208398 0.065208
0.399807 0.232096 0.057235
0.665513 0.248847 0.049263
0.945066 0.261481 0.041290
0.000000 0.481925 0.046360
0.248414 0.503421 0.038388
0.513498 0.520357 0.030415
0.787146 0.533457 0.022443
1.000000 0.542841 0.014470
0.033640 0.790833 0.019540
0.297309 0.804167 0.011567
0.568694 0.815208 0.003595
0.846025 0.824481 0.000000
1.000000 0.832363 0.000000
0.051520 1.000000 0.000000
0.326044 1.000000 0.000000
0.605199 1.000000 0.000000
0.888142 1.000000 0.000000
1.000000 1.000000 0.000000
0.000000 0.015541 0.097293
0.000000 0.017136 0.089320
0.115057 0.018731 0.165198
0.409261 0.020325 0.223445
0.713830 0.021920 0.251174
0.000000 0.186205 0.235772
0.170000 0.217500 0.257500
0.415265 0.238380 0.268813
0.681840 0.253507 0.274373
0.961426 0.265120 0.276419
0.002643 0.489857 0.275446
0.255204 0.509599 0.276548
0.521909 0.525339 0.275648
0.794333 0.536864 0.273343
1.000000 0.545620 0.270014
0.035445 0.795659 0.272234
0.300500 0.808144 0.268600
0.572836 0.818534 0.264268
0.850828 0.827299 0.259394
1.000000 0.834775 0.254091
0.053325 1.000000 0.257508
0.328671 1.000000 0.252071
0.608444 1.000000 0.246312
0.891854 1.000000 0.240290
1.000000 1.000000 0.222435
0.000000 0.016083 0.094585
0.000000 0.017677 0.086613
0.175092 0.019272 0.302404
0.456134 0.020866 0.399410
0.752414 0.022461 0.451545
0.000000 0.198481 0.421832
0.181378 0.225449 0.464607
0.429431 0.244020 0.490587
0.696975 0.257770 0.506926
0.976740 0.268498 0.517220
0.006614 0.497111 0.511245
0.261765 0.515322 0.519889
0.530000 0.530000 0.525000
0.801169 0.540038 0.527597
1.000000 0.548223 0.528341
0.037250 0.800170 0.528055
0.303611 0.811881 0.528244
0.576855 0.821674 0.527155
0.855482 0.829968 0.525066
1.000000 0.837067 0.522180
0.055130 1.000000 0.524099
0.331260 1.000000 0.520963
0.611628 1.000000 0.517228
0.894572 1.000000 0.512386
1.000000 1.000000 0.474141
0.000000 0.016625 0.091878
0.000000 0.018219 0.230033
0.222513 0.019814 0.476754
0.495756 0.021408 0.596724
0.786314 0.023003 0.665709
0.000000 0.208937 0.625904
0.191822 0.232463 0.683724
0.442513 0.249116 0.720929
0.711083 0.261690 0.745895
0.991135 0.271645 0.763003
0.010585 0.503776 0.752873
0.268125 0.520642 0.767807
0.535638 0.533652 0.778041
0.807687 0.542999 0.784887
1.000000 0.550665 0.789210
0.039055 0.804394 0.786717
0.306648 0.815398 0.790280
0.580758 0.824642 0.792083
0.860000 0.832500 0.792500
1.000000 0.839248 0.791807
0.056935 1.000000 0.792364
0.333815 1.000000 0.791321
0.614755 1.000000 0.789437
0.880374 1.000000 0.768174
1.000000 1.000000 0.716494
0.000000 0.017166 0.089170
0.033191 0.018760 0.423655
0.261147 0.020355 0.676979
0.529822 0.021950 0.810398
0.816420 0.023544 0.891044
0.000000 0.217968 0.844103
0.201497 0.238709 0.912714
0.454674 0.253753 0.958540
0.724300 0.265314 0.990434
1.000000 0.274590 1.000000
0.014556 0.509928 0.999597
0.274307 0.525605 1.000000
0.541017 0.537046 1.000000
0.813917 0.545769 1.000000
1.000000 0.552960 1.000000
0.040860 0.808357 1.000000
0.309619 0.818713 1.000000
0.584556 0.827450 1.000000
0.864390 0.834905 1.000000
1.000000 0.841325 1.000000
0.058740 1.000000 1.000000
0.336338 1.000000 1.000000
0.617828 1.000000 1.000000
0.866785 1.000000 1.000000
1.000000 1.000000 0.950000
