lc_editor/assets/luts/motovlog.cube
TITLE "motovlog"
LUT_3D_SIZE 9
0.000000 0.015000 0.100000
0.000000 0.015797 0.096014
0.000000 0.016594 0.092028
0.000000 0.017392 0.088041
0.035982 0.018189 0.084055
0.194329 0.018986 0.080069
0.352675 0.019783 0.076082
0.511022 0.020581 0.072096
0.669368 0.021378 0.068110
0.000000 0.017682 0.086590
0.000000 0.052419 0.082604
0.063446 0.075319 0.078618
0.170805 0.091273 0.074631
0.292012 0.103110 0.070645
0.422099 0.112308 0.066659
0.558222 0.119711 0.062672
0.698634 0.125840 0.058686
0.842202 0.131030 0.054700
0.000000 0.171561 0.073180
0.050732 0.192260 0.069194
0.157469 0.208398 0.065208
0.274816 0.221383 0.061221
0.399807 0.232096 0.057235
0.530486 0.241117 0.053249
0.665513 0.248847 0.049263
0.803936 0.255566 0.045276
0.945066 0.261481 0.041290
0.000000 0.326743 0.059770
0.090705 0.341406 0.055784
0.210121 0.353776 0.051797
0.335483 0.364378 0.047811
0.465528 0.373588 0.043825
0.599322 0.381684 0.039839
0.736168 0.388872 0.035853
0.875530 0.395313 0.031866
1.000000 0.401129 0.027880
0.000000 0.481925 0.046360
0.121228 0.493361 0.042374
0.248414 0.503421 0.038388
0.379388 0.512355 0.034401
0.513498 0.520357 0.030415
0.650234 0.527578 0.026429
0.787146 0.533457 0.022443
0.924810 0.538391 0.018456
1.000000 0.542841 0.014470
0.018340 0.637107 0.032950
0.147652 0.646535 0.028964
0.280031 0.655040 0.024977
0.411858 0.661709 0.020991
0.545926 0.667713 0.017005
0.681927 0.673141 0.013019
0.819607 0.678071 0.009033
0.958755 0.682564 0.005046
1.000000 0.686674 0.001060
0.033640 0.790833 0.019540
0.164374 0.797827 0.015554
0.297309 0.804167 0.011567
0.432162 0.809937 0.007581
0.568694 0.815208 0.003595
0.706704 0.820040 0.000000
0.846025 0.824481 0.000000
0.986511 0.828577 0.000000
1.000000 0.832363 0.000000
0.042580 0.942439 0.006130
0.176661 0.948438 0.002144
0.312391 0.953947 0.000000
0.449585 0.959022 0.000000
0.588084 0.963708 0.000000
0.727749 0.968047 0.000000
0.868463 0.972075 0.000000
1.000000 0.975822 0.000000
1.000000 0.979314 0.000000
0.051520 1.000000 0.000000
0.188141 1.000000 0.000000
0.326044 1.000000 0.000000
0.465101 1.000000 0.000000
0.605199 1.000000 0.000000
0.746242 1.000000 0.000000
0.888142 1.000000 0.000000
1.000000 1.000000 0.000000
1.000000 1.000000 0.000000
0.000000 0.015271 0.098646
0.000000 0.016068 0.094660
0.000000 0.016865 0.090674
0.000000 0.017662 0.086688
0.078458 0.018460 0.115973
0.229222 0.019257 0.134316
0.382378 0.020054 0.145614
0.536948 0.020852 0.152748
0.692424 0.021649 0.157215
0.000000 0.030752 0.098036
0.000000 0.061250 0.123750
0.076918 0.081333 0.139050
0.185147 0.095662 0.148595
0.306386 0.106478 0.154628
0.436153 0.114992 0.158358
0.571810 0.121916 0.160498
0.711707 0.127695 0.161494
0.854756 0.132622 0.161638
0.000000 0.179222 0.151120
0.055536 0.198167 0.156208
0.163895 0.213110 0.159294
0.282184 0.225242 0.160975
0.407712 0.235326 0.161632
0.538679 0.243871 0.161520
0.673837 0.251230 0.160815
0.812291 0.257657 0.159643
0.953385 0.263336 0.158098
0.000000 0.332021 0.161318
0.094076 0.345834 0.161670
0.214444 0.357553 0.161324
0.340467 0.367646 0.160437
0.470969 0.376451 0.159120
0.605080 0.384218 0.157457
0.742141 0.391136 0.155511
0.881644 0.397353 0.153331
1.000000 0.402981 0.150955
0.000657 0.485982 0.160002
0.124035 0.496918 0.158551
0.251839 0.506571 0.156778
0.383281 0.515169 0.154742
0.517746 0.522890 0.152487
0.654752 0.529875 0.150047
0.790786 0.535191 0.147452
0.928604 0.539953 0.144722
1.000000 0.544253 0.141878
0.020325 0.640421 0.153944
0.150180 0.649520 0.151618
0.281909 0.657386 0.149119
0.414080 0.663818 0.146473
0.548424 0.669616 0.143699
0.684647 0.674868 0.140816
0.822505 0.679643 0.137838
0.961795 0.684001 0.134777
1.000000 0.687991 0.131642
0.034543 0.793288 0.145477
0.165662 0.800049 0.142662
0.298915 0.806187 0.139743
0.434031 0.811780 0.136733
0.570781 0.816896 0.133643
0.708974 0.821589 0.130484
0.848445 0.825909 0.127262
0.989057 0.829896 0.123984
1.000000 0.833584 0.120657
0.043482 0.944535 0.135617
0.177851 0.950361 0.132501
0.313825 0.955717 0.129318
0.451226 0.960654 0.126075
0.589901 0.965219 0.122778
0.729717 0.969449 0.119434
0.870559 0.973378 0.116047
1.000000 0.977035 0.112622
1.000000 0.980446 0.109161
0.052422 1.000000 0.124880
0.189266 1.000000 0.121566
0.327362 1.000000 0.118206
0.466586 1.000000 0.114804
0.606829 1.000000 0.111365
0.747998 1.000000 0.107893
0.890007 1.000000 0.104389
1.000000 1.000000 0.100787
1.000000 1.000000 0.092906
0.000000 0.015541 0.097293
0.000000 0.016339 0.093306
0.000000 0.017136 0.089320
0.000000 0.017933 0.109076
0.115057 0.018731 0.165198
0.260179 0.019528 0.200152
0.409261 0.020325 0.223445
0.560756 0.021122 0.239634
0.713830 0.021920 0.251174
0.000000 0.042757 0.132950
0.000000 0.068928 0.179711
0.089099 0.086702 0.209677
0.198297 0.099655 0.230002
0.319715 0.109585 0.244283
0.449301 0.117496 0.254523
0.584613 0.123990 0.261930
0.724098 0.129452 0.267274
0.866715 0.134139 0.271068
0.000000 0.186205 0.235772
0.060112 0.203619 0.248402
0.170000 0.217500 0.257500
0.289201 0.228867 0.264083
0.415265 0.238380 0.268813
0.546532 0.246489 0.272138
0.681840 0.253507 0.274373
0.820345 0.259661 0.275744
0.961426 0.265120 0.276419
0.000000 0.336983 0.265993
0.097367 0.350022 0.270168
0.218643 0.361144 0.273065
0.345302 0.370767 0.274962
0.476251 0.379194 0.276063
0.610675 0.386654 0.276518
0.747952 0.393320 0.276444
0.887600 0.399325 0.275930
1.000000 0.404775 0.275046
0.002643 0.489857 0.275446
0.126805 0.500327 0.276297
0.255204 0.509599 0.276548
0.387098 0.517882 0.276304
0.521909 0.525339 0.275648
0.658158 0.531759 0.274643
0.794333 0.536864 0.273343
0.932305 0.541462 0.271788
1.000000 0.545620 0.270014
0.022311 0.643618 0.276109
0.152689 0.652406 0.275319
0.283752 0.659647 0.274202
0.416258 0.665853 0.272804
0.550872 0.671457 0.271166
0.687312 0.676540 0.269319
0.825344 0.681167 0.267290
0.964775 0.685395 0.265101
1.000000 0.689270 0.262771
0.035445 0.795659 0.272234
0.166937 0.802199 0.270516
0.300500 0.808144 0.268600
0.435872 0.813568 0.266510
0.572836 0.818534 0.264268
0.711207 0.823096 0.261891
0.850828 0.827299 0.259394
0.991563 0.831180 0.256790
1.000000 0.834775 0.254091
0.044385 0.946570 0.265711
0.179033 0.952230 0.263417
0.315245 0.957438 0.260995
0.452849 0.962244 0.258458
0.591696 0.966691 0.255818
0.731660 0.970815 0.253086
0.872629 0.974649 0.250271
1.000000 0.978220 0.247381
1.000000 0.981553 0.244423
0.053325 1.000000 0.257508
0.190386 1.000000 0.254834
0.328671 1.000000 0.252071
0.468058 1.000000 0.249227
0.608444 1.000000 0.246312
0.749736 1.000000 0.243331
0.891854 1.000000 0.240290
1.000000 1.000000 0.234062
1.000000 1.000000 0.222435
0.000000 0.015812 0.095939
0.000000 0.016609 0.091953
0.000000 0.017407 0.087966
0.014760 0.018204 0.155244
0.146971 0.019001 0.228215
0.287867 0.019799 0.275614
0.433736 0.020596 0.308371
0.582716 0.021393 0.331964
0.733774 0.022190 0.349441
0.000000 0.052943 0.185875
0.007851 0.075671 0.247682
0.100195 0.091528 0.288873
0.210419 0.103304 0.317825
0.332125 0.112462 0.338919
0.461640 0.119837 0.354667
0.596709 0.125945 0.366614
0.735868 0.131120 0.375761
0.878126 0.135588 0.382787
0.000000 0.192600 0.326254
0.064486 0.208668 0.345175
0.175818 0.221603 0.359395
0.295899 0.232279 0.370227
0.422495 0.241274 0.378536
0.554073 0.248982 0.384916
0.689545 0.255684 0.389788
0.828120 0.261586 0.393459
0.969205 0.266839 0.396157
0.000000 0.341658 0.373508
0.100585 0.353990 0.381057
0.222727 0.364563 0.386846
0.350000 0.373750 0.391250
0.481386 0.381827 0.394543
0.616118 0.389000 0.396933
0.753611 0.395428 0.398577
0.893407 0.401234 0.399600
1.000000 0.406200 0.400098
0.004628 0.493562 0.392565
0.129540 0.503599 0.395509
0.258511 0.512514 0.397611
0.390844 0.520500 0.399016
0.525993 0.527707 0.399837
0.661418 0.533555 0.400165
0.797793 0.538479 0.400071
0.935917 0.542920 0.399615
1.000000 0.546942 0.398845
0.024296 0.646703 0.399377
0.155101 0.655172 0.400010
0.285563 0.661828 0.400176
0.418395 0.667820 0.399945
0.553271 0.673238 0.399369
0.689924 0.678159 0.398495
0.828129 0.682645 0.397359
0.967699 0.686748 0.395994
1.000000 0.690513 0.394427
0.036348 0.797952 0.399772
0.168202 0.804281 0.399083
0.302065 0.810041 0.398110
0.437688 0.815303 0.396888
0.574860 0.820127 0.395446
0.713406 0.824562 0.393810
0.853173 0.828651 0.392001
0.994031 0.832432 0.390038
1.000000 0.835935 0.387937
0.045287 0.948546 0.396387
0.180208 0.954047 0.394872
0.316652 0.959113 0.393171
0.454454 0.963793 0.391304
0.593470 0.968126 0.389288
0.733579 0.972148 0.387140
0.874672 0.975890 0.384871
1.000000 0.979377 0.382493
1.000000 0.982635 0.380017
0.054227 1.000000 0.390586
0.191501 1.000000 0.388521
0.329970 1.000000 0.386327
0.469518 1.000000 0.384018
0.610043 1.000000 0.381603
0.751457 1.000000 0.379093
0.893681 1.000000 0.376496
1.000000 1.000000 0.364719
1.000000 1.000000 0.349490
0.000000 0.016083 0.094585
0.000000 0.016880 0.090599
0.000000 0.017677 0.086613
0.046841 0.018475 0.217772
0.175092 0.019272 0.302404
0.312810 0.020069 0.359162
0.456134 0.020866 0.399410
0.603053 0.021664 0.429073
0.752414 0.022461 0.451545
0.000000 0.061703 0.252928
0.015541 0.081646 0.325525
0.110371 0.095893 0.375338
0.221651 0.106657 0.411218
0.343722 0.115136 0.437956
0.473256 0.122034 0.458375
0.608165 0.127794 0.474241
0.747072 0.132708 0.486720
0.889034 0.136975 0.496611
0.000000 0.198481 0.421832
0.068683 0.213361 0.446012
0.181378 0.225449 0.464607
0.302309 0.235500 0.479128
0.429431 0.244020 0.490587
0.561325 0.251359 0.499686
0.696975 0.257770 0.506926
0.835634 0.263436 0.512678
0.976740 0.268498 0.517220
0.000000 0.346072 0.483612
0.103736 0.357757 0.494143
0.226705 0.367823 0.502515
0.354571 0.376606 0.509176
0.486382 0.384355 0.514460
0.621419 0.391259 0.518616
0.759127 0.397464 0.521839
0.899073 0.403082 0.524281
1.000000 0.407528 0.526061
0.006614 0.497111 0.511245
0.132244 0.506742 0.516092
0.261765 0.515322 0.519889
0.394522 0.523028 0.522812
0.530000 0.530000 0.525000
0.664597 0.535286 0.526565
0.801169 0.540038 0.527597
0.939446 0.544330 0.528169
1.000000 0.548223 0.528341
0.026282 0.649683 0.523687
0.156490 0.657513 0.525637
0.287343 0.663932 0.526998
0.420492 0.669720 0.527855
0.555625 0.674962 0.528275
0.692486 0.679729 0.528314
0.830860 0.684079 0.528021
0.970568 0.688063 0.527434
1.000000 0.691722 0.526588
0.037250 0.800170 0.528055
0.169455 0.806297 0.528331
0.303611 0.811881 0.528244
0.439477 0.816988 0.527840
0.576855 0.821674 0.527155
0.715572 0.825987 0.526221
0.855482 0.829968 0.525066
0.996461 0.833651 0.523712
1.000000 0.837067 0.522180
0.046190 0.950466 0.527621
0.181376 0.955814 0.526842
0.318046 0.960744 0.525825
0.456041 0.965301 0.524595
0.595224 0.969525 0.523174
0.735475 0.973449 0.521582
0.876691 0.977101 0.519835
1.000000 0.980508 0.517947
1.000000 0.983692 0.515932
0.055130 1.000000 0.524099
0.192611 1.000000 0.522613
0.331260 1.000000 0.520963
0.470965 1.000000 0.519163
0.611628 1.000000 0.517228
0.753161 1.000000 0.515169
0.894572 1.000000 0.512386
1.000000 1.000000 0.492834
1.000000 1.000000 0.474141
0.000000 0.016354 0.093231
0.000000 0.017151 0.089245
0.000000 0.017948 0.148191
0.074571 0.018745 0.293112
0.200097 0.019543 0.385766
0.335424 0.020340 0.449564
0.476731 0.021137 0.495751
0.621957 0.021934 0.530402
0.769888 0.022732 0.557084
0.000000 0.069324 0.331264
0.022591 0.086982 0.411581
0.119759 0.099865 0.468024
0.232103 0.109750 0.509476
0.354600 0.117629 0.540899
0.484223 0.124101 0.565285
0.619038 0.129547 0.584540
0.757756 0.134221 0.599942
0.899479 0.138303 0.612376
0.000000 0.203909 0.521889
0.072720 0.217735 0.550474
0.186705 0.229061 0.572811
0.308456 0.238545 0.590541
0.436096 0.246630 0.604775
0.568311 0.253630 0.616295
0.704148 0.259770 0.625665
0.842904 0.265217 0.633304
0.984045 0.270098 0.639527
0.000000 0.350247 0.596081
0.106825 0.361338 0.609250
0.230585 0.370935 0.619931
0.359023 0.379343 0.628628
0.491248 0.386787 0.635719
0.626585 0.393439 0.641491
0.764509 0.399432 0.646166
0.904606 0.404873 0.649919
1.000000 0.408808 0.652889
0.008600 0.500512 0.631379
0.134917 0.509763 0.637961
0.264969 0.518029 0.643310
0.398138 0.525472 0.647631
0.532853 0.531860 0.651084
0.667699 0.536955 0.653799
0.804466 0.541544 0.655881
0.942893 0.545694 0.657415
1.000000 0.549463 0.658472
0.028267 0.652563 0.648981
0.157861 0.659770 0.652152
0.289094 0.665964 0.654626
0.422551 0.671558 0.656499
0.557935 0.676631 0.657851
0.695000 0.681250 0.658750
0.833541 0.685471 0.659250
0.973385 0.689340 0.659399
1.000000 0.692897 0.659235
0.038153 0.802316 0.657048
0.170699 0.808251 0.658228
0.305138 0.813665 0.658976
0.441243 0.818624 0.659343
0.578820 0.823178 0.659374
0.717705 0.827374 0.659105
0.857758 0.831250 0.658571
0.998856 0.834840 0.657797
1.000000 0.838171 0.656808
0.047092 0.952332 0.659391
0.182537 0.957532 0.659309
0.319428 0.962331 0.658940
0.457613 0.966771 0.658315
0.596958 0.970890 0.657461
0.737349 0.974718 0.656399
0.878685 0.978285 0.655150
1.000000 0.981614 0.653731
1.000000 0.984726 0.652158
0.056032 1.000000 0.658029
0.193716 1.000000 0.657097
0.332542 1.000000 0.655965
0.472401 1.000000 0.654652
0.613198 1.000000 0.653176
0.754850 1.000000 0.651550
0.887394 1.000000 0.641548
0.999240 1.000000 0.618480
1.000000 1.000000 0.596454
0.000000 0.016625 0.091878
0.000000 0.017422 0.087891
0.000000 0.018219 0.230033
0.098829 0.019016 0.378672
0.222513 0.019814 0.476754
0.356048 0.020611 0.545829
0.495756 0.021408 0.596724
0.639589 0.022205 0.635474
0.786314 0.023003 0.665709
0.000000 0.076021 0.418755
0.029105 0.091781 0.504544
0.128467 0.103498 0.566075
0.241871 0.112615 0.612009
0.364835 0.119962 0.647324
0.494602 0.126051 0.675083
0.629383 0.131210 0.697273
0.767964 0.135667 0.715241
0.909494 0.139577 0.729934
0.000000 0.208937 0.625904
0.076614 0.221823 0.658183
0.191822 0.232463 0.683724
0.314362 0.241430 0.704247
0.442513 0.249116 0.720929
0.575050 0.255802 0.734609
0.711083 0.261690 0.745895
0.849947 0.266933 0.755245
0.991135 0.271645 0.763003
0.000000 0.354204 0.710715
0.109857 0.364748 0.726221
0.234374 0.373911 0.738968
0.363364 0.381969 0.749503
0.495993 0.389127 0.758238
0.631625 0.395542 0.765487
0.769763 0.401338 0.771497
0.909009 0.406275 0.776462
1.000000 0.410040 0.780537
0.010585 0.503776 0.752873
0.137562 0.512672 0.761035
0.268125 0.520642 0.767807
0.401693 0.527836 0.773417
0.535638 0.533652 0.778041
0.670729 0.538567 0.781826
0.807687 0.542999 0.784887
0.946264 0.547014 0.787322
1.000000 0.550665 0.789210
0.030115 0.655304 0.775206
0.159217 0.661947 0.779510
0.290818 0.667927 0.783019
0.424574 0.673335 0.785842
0.560203 0.678247 0.788069
0.697468 0.682726 0.789775
0.836174 0.686822 0.791024
0.976151 0.690581 0.791867
1.000000 0.694040 0.792351
0.039055 0.804394 0.786717
0.171932 0.810144 0.788747
0.306648 0.815398 0.790280
0.442986 0.820213 0.791375
0.580758 0.824642 0.792083
0.719808 0.828725 0.792445
0.860000 0.832500 0.792500
1.000000 0.835999 0.792278
1.000000 0.839248 0.791807
0.047995 0.954146 0.791675
0.183691 0.959205 0.792253
0.320798 0.963877 0.792499
0.459168 0.968204 0.792450
0.598673 0.972221 0.792134
0.739201 0.975958 0.791578
0.880656 0.979441 0.790806
1.000000 0.982694 0.789835
1.000000 0.985737 0.788686
0.056935 1.000000 0.792364
0.194817 1.000000 0.791958
0.333815 1.000000 0.791321
0.473825 1.000000 0.790474
0.614755 1.000000 0.789437
0.756522 1.000000 0.788226
0.880374 1.000000 0.768174
0.991408 1.000000 0.741726
1.000000 1.000000 0.716494
0.000000 0.016895 0.090524
0.000000 0.017692 0.086538
0.014185 0.018490 0.322628
0.120275 0.019287 0.472517
0.242753 0.020084 0.574148
0.374955 0.020882 0.647146
0.513399 0.021679 0.701765
0.656088 0.022476 0.743884
0.801795 0.023273 0.777117
0.000000 0.081958 0.513776
0.035162 0.096123 0.603368
0.136586 0.106835 0.668784
0.251034 0.115278 0.718320
0.374495 0.122152 0.756868
0.504451 0.127894 0.787496
0.639244 0.132794 0.812227
0.777733 0.137050 0.832451
0.919113 0.140802 0.849151
0.000000 0.213611 0.733435
0.080380 0.225655 0.768811
0.196747 0.235673 0.797098
0.320049 0.244168 0.820053
0.448699 0.251488 0.838897
0.581560 0.257883 0.854503
0.717796 0.263537 0.867515
0.856777 0.268588 0.878417
0.998022 0.273141 0.887578
0.000000 0.357960 0.827337
0.112836 0.367999 0.844915
0.238079 0.376761 0.859512
0.367601 0.384492 0.871707
0.500624 0.391382 0.881937
0.636547 0.397575 0.890539
0.774897 0.403183 0.897778
0.913214 0.407600 0.903864
1.000000 0.411230 0.908965
0.012570 0.506912 0.875639
0.140180 0.515474 0.885242
0.271237 0.523166 0.893320
0.405132 0.530105 0.900117
0.538358 0.535380 0.905827
0.673689 0.540123 0.910606
0.810836 0.544407 0.914582
0.949561 0.548293 0.917861
1.000000 0.551830 0.920530
0.031017 0.657641 0.902313
0.160558 0.664047 0.907668
0.292515 0.669824 0.912141
0.426563 0.675056 0.915852
0.562431 0.679814 0.918899
0.699893 0.684157 0.921365
0.838759 0.688134 0.923319
0.978869 0.691788 0.924819
1.000000 0.695153 0.925916
0.039958 0.806407 0.917033
0.173155 0.811981 0.919860
0.308141 0.817080 0.922133
0.444706 0.821758 0.923915
0.582670 0.826065 0.925263
0.721882 0.830040 0.926224
0.862210 0.833718 0.926839
1.000000 0.837129 0.927142
1.000000 0.840299 0.927165
0.048897 0.955910 0.924453
0.184839 0.960833 0.925656
0.322157 0.965384 0.926486
0.460708 0.969602 0.926984
0.600369 0.973520 0.927181
0.741032 0.977168 0.927109
0.882603 0.980570 0.926791
1.000000 0.983750 0.926250
1.000000 0.986727 0.925506
0.057838 1.000000 0.927089
0.195913 1.000000 0.927185
0.335081 1.000000 0.927020
0.475239 1.000000 0.926619
0.616298 1.000000 0.926002
0.756996 1.000000 0.923532
0.873505 1.000000 0.892336
0.983740 1.000000 0.862640
1.000000 1.000000 0.834323
0.000000 0.017166 0.089170
0.000000 0.017963 0.191542
0.033191 0.018760 0.423655
0.139408 0.019558 0.573170
0.261147 0.020355 0.676979
0.392373 0.021152 0.752850
0.529822 0.021950 0.810398
0.671573 0.022747 0.855281
0.816420 0.023544 0.891044
0.000000 0.087261 0.615067
0.040828 0.100075 0.707212
0.144189 0.109915 0.775564
0.259660 0.117763 0.827984
0.383638 0.124212 0.869214
0.513818 0.129641 0.902283
0.648662 0.134303 0.929217
0.787099 0.138375 0.951423
0.928364 0.141981 0.969910
0.000000 0.217968 0.844103
0.084030 0.229255 0.882074
0.201497 0.238709 0.912714
0.325534 0.246771 0.937789
0.454674 0.253753 0.958540
0.587858 0.259878 0.975867
0.724300 0.265314 0.990434
0.863406 0.270185 1.000000
1.000000 0.274590 1.000000
0.000000 0.361531 0.945791
0.115766 0.371104 0.965206
0.241704 0.379491 0.981460
0.371742 0.386919 0.995154
0.505149 0.393557 1.000000
0.641356 0.399540 1.000000
0.779917 0.404971 1.000000
0.917305 0.408877 1.000000
1.000000 0.412377 1.000000
0.014556 0.509928 0.999597
0.142774 0.518176 1.000000
0.274307 0.525605 1.000000
0.407495 0.531961 1.000000
0.541017 0.537046 1.000000
0.676583 0.541626 1.000000
0.813917 0.545769 1.000000
0.952788 0.549531 1.000000
1.000000 0.552960 1.000000
0.031920 0.659893 1.000000
0.161884 0.666075 1.000000
0.294187 0.671658 1.000000
0.428519 0.676722 1.000000
0.564620 0.681333 1.000000
0.702275 0.685547 1.000000
0.841300 0.689409 1.000000
0.981541 0.692961 1.000000
1.000000 0.696236 1.000000
0.040860 0.808357 1.000000
0.174370 0.813763 1.000000
0.309619 0.818713 1.000000
0.446404 0.823261 1.000000
0.584556 0.827450 1.000000
0.723927 0.831321 1.000000
0.864390 0.834905 1.000000
1.000000 0.838231 1.000000
1.000000 0.841325 1.000000
0.049800 0.957626 1.000000
0.185981 0.962418 1.000000
0.323504 0.966852 1.000000
0.462233 0.970964 1.000000
0.602048 0.974788 1.000000
0.742843 0.978350 1.000000
0.884529 0.981674 1.000000
1.000000 0.984783 1.000000
1.000000 0.986799 1.000000
0.058740 1.000000 1.000000
0.197005 1.000000 1.000000
0.336338 1.000000 1.000000
0.476642 1.000000 1.000000
0.617828 1.000000 1.000000
0.751172 1.000000 1.000000
0.866785 1.000000 1.000000
0.976230 1.000000 0.981287
1.000000 1.000000 0.950000
