lc_editor/assets/luts/motovlog.cube
TITLE "motovlog"
LUT_3D_SIZE 17
0.000000 0.015000 0.100000
0.000000 0.015399 0.098007
0.000000 0.015797 0.096014
0.000000 0.016196 0.094021
0.000000 0.016594 0.092028
0.000000 0.016993 0.090034
0.000000 0.017392 0.088041
0.000000 0.017790 0.086048
0.035982 0.018189 0.084055
0.115156 0.018588 0.082062
0.194329 0.018986 0.080069
0.273502 0.019385 0.078076
0.352675 0.019783 0.076082
0.431849 0.020182 0.074089
0.511022 0.020581 0.072096
0.590195 0.020979 0.070103
0.669368 0.021378 0.068110
0.000000 0.016341 0.093295
0.000000 0.016740 0.091302
0.000000 0.017138 0.089309
0.000000 0.017537 0.087316
0.000000 0.023925 0.085323
0.016399 0.032724 0.083329
0.073348 0.039729 0.081336
0.134587 0.045459 0.079343
0.198982 0.050250 0.077350
0.265767 0.054331 0.075357
0.334406 0.057861 0.073364
0.404512 0.060955 0.071371
0.475798 0.063698 0.069378
0.548049 0.066155 0.067384
0.621096 0.068374 0.065391
0.694811 0.070396 0.063398
0.769089 0.072249 0.061405
0.000000 0.017682 0.086590
0.000000 0.036679 0.084597
0.000000 0.052419 0.082604
0.017629 0.065005 0.080611
0.063446 0.075319 0.078618
0.114952 0.083942 0.076624
0.170805 0.091273 0.074631
0.230056 0.097594 0.072638
0.292012 0.103110 0.070645
0.356157 0.107976 0.068652
0.422099 0.112308 0.066659
0.489534 0.116196 0.064666
0.558222 0.119711 0.062672
0.627973 0.122911 0.060679
0.698634 0.125840 0.058686
0.770078 0.128536 0.056693
0.842202 0.131030 0.054700
0.000000 0.093970 0.079885
0.000000 0.108234 0.077892
0.022272 0.120206 0.075899
0.068462 0.130409 0.073906
0.119333 0.139221 0.071913
0.173954 0.146918 0.069919
0.231627 0.153707 0.067926
0.291815 0.159749 0.065933
0.354103 0.165167 0.063940
0.418159 0.170060 0.061947
0.483720 0.174505 0.059954
0.550571 0.178566 0.057961
0.618539 0.182296 0.055968
0.687476 0.185737 0.053974
0.757264 0.188926 0.051981
0.827799 0.191892 0.049988
0.898997 0.194662 0.047995
0.000000 0.171561 0.073180
0.002718 0.182599 0.071187
0.050732 0.192260 0.069194
0.102532 0.200795 0.067201
0.157469 0.208398 0.065208
0.215032 0.215221 0.063214
0.274816 0.221383 0.061221
0.336497 0.226982 0.059228
0.399807 0.232096 0.057235
0.464531 0.236790 0.055242
0.530486 0.241117 0.053249
0.597523 0.245124 0.051256
0.665513 0.248847 0.049263
0.734348 0.252318 0.047269
0.803936 0.255566 0.045276
0.874198 0.258614 0.043283
0.945066 0.261481 0.041290
0.000000 0.249152 0.066475
0.019309 0.258181 0.064482
0.072533 0.266293 0.062489
0.128376 0.273627 0.060496
0.186459 0.280295 0.058503
0.246476 0.286388 0.056509
0.308172 0.291982 0.054516
0.371335 0.297140 0.052523
0.435788 0.301914 0.050530
0.501382 0.306350 0.048537
0.567988 0.310484 0.046544
0.635497 0.314350 0.044551
0.703816 0.317975 0.042557
0.772863 0.321384 0.040564
0.842567 0.324597 0.038571
0.912866 0.327634 0.036578
0.983706 0.330509 0.034585
0.000000 0.326743 0.059770
0.033753 0.334402 0.057777
0.090705 0.341406 0.055784
0.149573 0.347840 0.053791
0.210121 0.353776 0.051797
0.272147 0.359271 0.049804
0.335483 0.364378 0.047811
0.399985 0.369138 0.045818
0.465528 0.373588 0.043825
0.532004 0.377761 0.041832
0.599322 0.381684 0.039839
0.667400 0.385380 0.037846
0.736168 0.388872 0.035853
0.805563 0.392177 0.033859
0.875530 0.395313 0.031866
0.946020 0.398292 0.029873
1.000000 0.401129 0.027880
0.000000 0.404334 0.053065
0.046934 0.410998 0.051072
0.106681 0.417171 0.049079
0.167891 0.422910 0.047086
0.230405 0.428260 0.045093
0.294086 0.433264 0.043099
0.358815 0.437956 0.041106
0.424491 0.442367 0.039113
0.491022 0.446524 0.037120
0.558330 0.450450 0.035127
0.626345 0.454165 0.033134
0.695006 0.457689 0.031141
0.764258 0.461036 0.029148
0.834054 0.464223 0.027154
0.904349 0.467260 0.025161
0.973639 0.469673 0.023168
1.000000 0.471916 0.021175
0.000000 0.481925 0.046360
0.059309 0.487834 0.044367
0.121228 0.493361 0.042374
0.184300 0.498546 0.040381
0.248414 0.503421 0.038388
0.313472 0.508016 0.036394
0.379388 0.512355 0.034401
0.446086 0.516462 0.032408
0.513498 0.520357 0.030415
0.581565 0.524057 0.028422
0.650234 0.527578 0.026429
0.719006 0.530784 0.024436
0.787146 0.533457 0.022443
0.855759 0.535989 0.020449
0.924810 0.538391 0.018456
0.994269 0.540672 0.016463
1.000000 0.542841 0.014470
0.008506 0.559516 0.039655
0.071136 0.564832 0.037662
0.134792 0.569843 0.035669
0.199380 0.574578 0.033676
0.264819 0.579059 0.031683
0.331037 0.583309 0.029689
0.397969 0.587346 0.027696
0.465558 0.591188 0.025703
0.532720 0.594507 0.023710
0.599879 0.597471 0.021717
0.667555 0.600282 0.019724
0.735711 0.602950 0.017731
0.804313 0.605486 0.015738
0.873329 0.607898 0.013744
0.942732 0.610195 0.011751
1.000000 0.612385 0.009758
1.000000 0.614475 0.007765
0.018340 0.637107 0.032950
0.082577 0.641945 0.030957
0.147652 0.646535 0.028964
0.213497 0.650896 0.026971
0.280031 0.655040 0.024977
0.345643 0.658464 0.022984
0.411858 0.661709 0.020991
0.478633 0.664788 0.018998
0.545926 0.667713 0.017005
0.613702 0.670494 0.015012
0.681927 0.673141 0.013019
0.750572 0.675664 0.011026
0.819607 0.678071 0.009033
0.889009 0.680369 0.007039
0.958755 0.682564 0.005046
1.000000 0.684664 0.003053
1.000000 0.686674 0.001060
0.028174 0.714698 0.026245
0.093135 0.718944 0.024252
0.157797 0.722651 0.022259
0.223106 0.726165 0.020266
0.289012 0.729502 0.018273
0.355475 0.732673 0.016279
0.422455 0.735691 0.014286
0.489916 0.738566 0.012293
0.557827 0.741307 0.010300
0.626158 0.743923 0.008307
0.694883 0.746422 0.006314
0.763976 0.748811 0.004321
0.833416 0.751098 0.002327
0.903181 0.753288 0.000334
0.973253 0.755386 0.000000
1.000000 0.757399 0.000000
1.000000 0.759331 0.000000
0.033640 0.790833 0.019540
0.098712 0.794418 0.017547
0.164374 0.797827 0.015554
0.230585 0.801073 0.013561
0.297309 0.804167 0.011567
0.364512 0.807119 0.009574
0.432162 0.809937 0.007581
0.500231 0.812631 0.005588
0.568694 0.815208 0.003595
0.637525 0.817676 0.001602
0.706704 0.820040 0.000000
0.776211 0.822306 0.000000
0.846025 0.824481 0.000000
0.916130 0.826570 0.000000
0.986511 0.828577 0.000000
1.000000 0.830507 0.000000
1.000000 0.832363 0.000000
0.038110 0.866636 0.012835
0.104122 0.869941 0.010842
0.170640 0.873096 0.008849
0.237632 0.876111 0.006856
0.305067 0.878993 0.004863
0.372918 0.881752 0.002869
0.441161 0.884394 0.000876
0.509771 0.886927 0.000000
0.578728 0.889357 0.000000
0.648013 0.891690 0.000000
0.717606 0.893931 0.000000
0.787490 0.896085 0.000000
0.857651 0.898157 0.000000
0.928074 0.900152 0.000000
0.998744 0.902072 0.000000
1.000000 0.903923 0.000000
1.000000 0.905707 0.000000
0.042580 0.942439 0.006130
0.109401 0.945504 0.004137
0.176661 0.948438 0.002144
0.244332 0.951251 0.000151
0.312391 0.953947 0.000000
0.380816 0.956536 0.000000
0.449585 0.959022 0.000000
0.518681 0.961410 0.000000
0.588084 0.963708 0.000000
0.657778 0.965919 0.000000
0.727749 0.968047 0.000000
0.797982 0.970098 0.000000
0.868463 0.972075 0.000000
0.939180 0.973982 0.000000
1.000000 0.975822 0.000000
1.000000 0.977598 0.000000
1.000000 0.979314 0.000000
0.047050 1.000000 0.000000
0.114574 1.000000 0.000000
0.182482 1.000000 0.000000
0.250752 1.000000 0.000000
0.319363 1.000000 0.000000
0.388298 1.000000 0.000000
0.457539 1.000000 0.000000
0.527070 1.000000 0.000000
0.596877 1.000000 0.000000
0.666945 1.000000 0.000000
0.737261 1.000000 0.000000
0.807814 1.000000 0.000000
0.878591 1.000000 0.000000
0.949583 1.000000 0.000000
1.000000 1.000000 0.000000
1.000000 1.000000 0.000000
1.000000 1.000000 0.000000
0.051520 1.000000 0.000000
0.119661 1.000000 0.000000
0.188141 1.000000 0.000000
0.256941 1.000000 0.000000
0.326044 1.000000 0.000000
0.395436 1.000000 0.000000
0.465101 1.000000 0.000000
0.535026 1.000000 0.000000
0.605199 1.000000 0.000000
0.675608 1.000000 0.000000
0.746242 1.000000 0.000000
0.817089 1.000000 0.000000
0.888142 1.000000 0.000000
0.959389 1.000000 0.000000
1.000000 1.000000 0.000000
1.000000 1.000000 0.000000
1.000000 1.000000 0.000000
0.000000 0.015135 0.099323
0.000000 0.015534 0.097330
0.000000 0.015933 0.095337
0.000000 0.016331 0.093344
0.000000 0.016730 0.091351
0.000000 0.017128 0.089358
0.000000 0.017527 0.087364
0.000000 0.017926 0.091127
0.058045 0.018324 0.097586
0.134962 0.018723 0.102236
0.212316 0.019122 0.105601
0.289990 0.019520 0.108021
0.367908 0.019919 0.109725
0.446014 0.020317 0.110875
0.524268 0.020716 0.111587
0.602643 0.021115 0.111946
0.681115 0.021513 0.112018
0.000000 0.016476 0.092618
0.000000 0.016875 0.090625
0.000000 0.017274 0.088632
0.000000 0.017672 0.086639
0.000000 0.027158 0.093732
0.029460 0.035273 0.099456
0.085944 0.041798 0.103589
0.146667 0.047178 0.106577
0.210543 0.051707 0.108714
0.276828 0.055585 0.110201
0.344994 0.058956 0.111180
0.414656 0.061923 0.111755
0.485530 0.064562 0.112003
0.557398 0.066933 0.111982
0.630091 0.069081 0.111739
0.703477 0.071043 0.111308
0.777451 0.072845 0.110719
0.000000 0.023904 0.088957
0.000000 0.042451 0.096038
0.000000 0.056995 0.101117
0.024004 0.068729 0.104791
0.070358 0.078414 0.107442
0.122152 0.086561 0.109323
0.178136 0.093521 0.110610
0.237417 0.099549 0.111432
0.299339 0.104829 0.111880
0.363407 0.109502 0.112024
0.429246 0.113674 0.111917
0.496561 0.117428 0.111602
0.565119 0.120831 0.111111
0.634736 0.123934 0.110470
0.705260 0.126780 0.109700
0.776567 0.129404 0.108820
0.848557 0.131836 0.107843
0.000000 0.099112 0.105859
0.000000 0.112527 0.108205
0.025603 0.123848 0.109853
0.072452 0.133542 0.110958
0.123781 0.141948 0.111634
0.178719 0.149316 0.111964
0.236607 0.155836 0.112011
0.296936 0.161654 0.111825
0.359311 0.166884 0.111442
0.423414 0.171616 0.110893
0.488993 0.175924 0.110203
0.555840 0.179868 0.109392
0.623786 0.183495 0.108475
0.692691 0.186847 0.107466
0.762436 0.189957 0.106377
0.832922 0.192853 0.105216
0.904066 0.195561 0.103993
0.000000 0.175482 0.111249
0.004533 0.186020 0.111791
0.053164 0.195274 0.112011
0.105432 0.203474 0.111968
0.160724 0.210796 0.111706
0.218557 0.217382 0.111260
0.278547 0.223343 0.110657
0.340381 0.228769 0.109921
0.403806 0.233734 0.109070
0.468613 0.238298 0.108118
0.534627 0.242512 0.107078
0.601703 0.246418 0.105962
0.669716 0.250052 0.104778
0.738563 0.253445 0.103533
0.808152 0.256622 0.102235
0.878408 0.259607 0.100888
0.949262 0.262418 0.099498
0.000000 0.252331 0.111896
0.020844 0.261031 0.111563
0.074500 0.268865 0.111057
0.130688 0.275961 0.110404
0.189048 0.282425 0.109624
0.249286 0.288340 0.108734
0.311159 0.293780 0.107749
0.374465 0.298802 0.106680
0.439032 0.303456 0.105539
0.504716 0.307786 0.104332
0.571393 0.311825 0.103067
0.638957 0.315606 0.101750
0.707318 0.319156 0.100387
0.776396 0.322496 0.098982
0.846121 0.325647 0.097540
0.916435 0.328627 0.096063
0.987282 0.331452 0.094555
0.000000 0.329423 0.110133
0.035132 0.336849 0.109312
0.092401 0.343651 0.108386
0.151532 0.349909 0.107369
0.212298 0.355689 0.106273
0.274507 0.361047 0.105106
0.337994 0.366031 0.103877
0.402622 0.370682 0.102593
0.468269 0.375035 0.101259
0.534832 0.379120 0.099880
0.602222 0.382963 0.098461
0.670359 0.386588 0.097006
0.739175 0.390015 0.095517
0.808609 0.393261 0.093999
0.878607 0.396341 0.092453
0.949122 0.399271 0.090881
1.000000 0.402063 0.089287
0.000000 0.406656 0.106979
0.048215 0.413146 0.105856
0.108205 0.419166 0.104666
0.169622 0.424768 0.103416
0.232312 0.429997 0.102113
0.296144 0.434891 0.100762
0.361002 0.439484 0.099368
0.426787 0.443806 0.097935
0.493412 0.447882 0.096468
0.560800 0.451734 0.094968
0.628883 0.455382 0.093439
0.697602 0.458844 0.091883
0.766904 0.462136 0.090303
0.836741 0.465270 0.088701
0.906658 0.468123 0.087078
0.975848 0.470448 0.085436
1.000000 0.472650 0.083777
0.000000 0.483977 0.102947
0.060524 0.489752 0.101626
0.122636 0.495159 0.100259
0.185875 0.500235 0.098851
0.250135 0.505012 0.097405
0.315319 0.509517 0.095925
0.381344 0.513775 0.094414
0.448137 0.517808 0.092876
0.515633 0.521635 0.091311
0.583773 0.525272 0.089723
0.652505 0.528736 0.088113
0.720790 0.531708 0.086483
0.788978 0.534332 0.084834
0.857632 0.536819 0.083168
0.926719 0.539179 0.081487
0.996208 0.541421 0.079791
1.000000 0.543553 0.078081
0.009499 0.561357 0.098328
0.072307 0.566567 0.096870
0.136118 0.571481 0.095378
0.200844 0.576127 0.093857
0.266404 0.580527 0.092309
0.332729 0.584703 0.090735
0.399755 0.588672 0.089139
0.467428 0.592451 0.087521
0.534122 0.595531 0.085885
0.601346 0.598442 0.084230
0.669080 0.601203 0.082558
0.737287 0.603825 0.080871
0.805934 0.606318 0.079170
0.874991 0.608691 0.077455
0.944429 0.610951 0.075728
1.000000 0.613106 0.073989
1.000000 0.615163 0.072239
0.019333 0.638779 0.093297
0.083715 0.643531 0.091739
0.148919 0.648040 0.090157
0.214878 0.652328 0.088552
0.280974 0.656224 0.086928
0.346678 0.659586 0.085284
0.412975 0.662773 0.083623
0.479823 0.665798 0.081946
0.547182 0.668673 0.080253
0.615016 0.671407 0.078547
0.683294 0.674012 0.076827
0.751986 0.676494 0.075096
0.821063 0.678863 0.073353
0.890503 0.681125 0.071599
0.960282 0.683288 0.069836
1.000000 0.685357 0.068063
1.000000 0.687337 0.066281
0.029167 0.716232 0.087963
0.093706 0.720225 0.086331
0.158477 0.723865 0.084681
0.223883 0.727318 0.083014
0.289878 0.730597 0.081331
0.356420 0.733715 0.079634
0.423471 0.736683 0.077922
0.490997 0.739511 0.076198
0.558967 0.742209 0.074463
0.627351 0.744784 0.072716
0.696123 0.747245 0.070958
0.765260 0.749599 0.069191
0.834739 0.751852 0.067415
0.904540 0.754010 0.065630
0.974644 0.756079 0.063837
1.000000 0.758064 0.062037
1.000000 0.759969 0.060229
0.034091 0.792071 0.082403
0.099265 0.795595 0.080715
0.165019 0.798947 0.079012
0.231315 0.802141 0.077296
0.298115 0.805185 0.075568
0.365387 0.808090 0.073828
0.433100 0.810866 0.072077
0.501227 0.813519 0.070316
0.569741 0.816058 0.068546
0.638621 0.818490 0.066766
0.707844 0.820820 0.064978
0.777389 0.823055 0.063183
0.847240 0.825200 0.061379
0.917379 0.827261 0.059569
0.987789 0.829241 0.057752
1.000000 0.831145 0.055929
1.000000 0.832978 0.054099
0.038561 0.867776 0.076668
0.104661 0.871029 0.074936
0.171258 0.874135 0.073192
0.238323 0.877104 0.071437
0.305824 0.879943 0.069673
0.373737 0.882662 0.067899
0.442035 0.885266 0.066116
0.510697 0.887764 0.064325
0.579701 0.890160 0.062527
0.649029 0.892461 0.060721
0.718662 0.894672 0.058908
0.788583 0.896798 0.057089
0.858777 0.898843 0.055263
0.929230 0.900812 0.053432
0.999929 0.902709 0.051595
1.000000 0.904536 0.049752
1.000000 0.906299 0.047905
0.043031 0.943495 0.070796
0.109928 0.946515 0.069028
0.177257 0.949407 0.067251
0.244992 0.952179 0.065465
0.313110 0.954838 0.063672
0.381589 0.957391 0.061870
0.450408 0.959843 0.060062
0.519549 0.962201 0.058247
0.588995 0.964468 0.056425
0.658729 0.966651 0.054597
0.728736 0.968752 0.052764
0.799002 0.970778 0.050925
0.869514 0.972730 0.049080
0.940261 0.974614 0.047231
1.000000 0.976432 0.045378
1.000000 0.978187 0.043519
1.000000 0.979883 0.041657
0.047501 1.000000 0.064813
0.115092 1.000000 0.063017
0.183060 1.000000 0.061213
0.251386 1.000000 0.059402
0.320050 1.000000 0.057584
0.389033 1.000000 0.055760
0.458319 1.000000 0.053930
0.527892 1.000000 0.052095
0.597737 1.000000 0.050254
0.667841 1.000000 0.048408
0.738190 1.000000 0.046557
0.808774 1.000000 0.044702
0.879580 1.000000 0.042842
0.950599 1.000000 0.040978
1.000000 1.000000 0.039110
1.000000 1.000000 0.037238
1.000000 1.000000 0.035363
0.051971 1.000000 0.058741
0.120171 1.000000 0.056921
0.188704 1.000000 0.055095
0.257554 1.000000 0.053263
0.326704 1.000000 0.051425
0.396139 1.000000 0.049582
0.465845 1.000000 0.047735
0.535808 1.000000 0.045882
0.606016 1.000000 0.044025
0.676458 1.000000 0.042164
0.747122 1.000000 0.040298
0.817998 1.000000 0.038429
0.889077 1.000000 0.036556
0.960349 1.000000 0.034679
1.000000 1.000000 0.032799
1.000000 1.000000 0.030153
1.000000 1.000000 0.027191
0.000000 0.015271 0.098646
0.000000 0.015669 0.096653
0.000000 0.016068 0.094660
0.000000 0.016467 0.092667
0.000000 0.016865 0.090674
0.000000 0.017264 0.088681
0.000000 0.017662 0.086688
0.004558 0.018061 0.102440
0.078458 0.018460 0.115973
0.153448 0.018858 0.126298
0.229222 0.019257 0.134316
0.305578 0.019656 0.140619
0.382378 0.020054 0.145614
0.459525 0.020453 0.149587
0.536948 0.020852 0.152748
0.614594 0.021250 0.155251
0.692424 0.021649 0.157215
0.000000 0.016612 0.091941
0.000000 0.017010 0.089948
0.000000 0.017409 0.087955
0.000000 0.020597 0.091541
0.000000 0.030129 0.107814
0.041615 0.037641 0.120047
0.097754 0.043736 0.129448
0.158066 0.048800 0.136785
0.221509 0.053089 0.142572
0.287365 0.056781 0.147167
0.355117 0.060004 0.150823
0.424387 0.062852 0.153728
0.494893 0.065395 0.156023
0.566415 0.067686 0.157814
0.638785 0.069767 0.159186
0.711870 0.071671 0.160205
0.785562 0.073425 0.160923
0.000000 0.030752 0.098036
0.000000 0.047768 0.112659
0.000000 0.061250 0.123750
0.030027 0.072218 0.132326
0.076918 0.081333 0.139050
0.129013 0.089043 0.144368
0.185147 0.095662 0.148595
0.244479 0.101418 0.151959
0.306386 0.106478 0.154628
0.370399 0.110971 0.156728
0.436153 0.114992 0.158358
0.503365 0.118621 0.159595
0.571810 0.121916 0.160498
0.641306 0.124927 0.161118
0.711707 0.127695 0.161494
0.782890 0.130251 0.161658
0.854756 0.132622 0.161638
0.000000 0.103939 0.134961
0.000000 0.116580 0.141130
0.028809 0.127303 0.146020
0.076295 0.136527 0.149910
0.128071 0.144556 0.153004
0.183322 0.151618 0.155453
0.241425 0.157884 0.157372
0.301899 0.163491 0.158851
0.364366 0.168543 0.159959
0.428523 0.173124 0.160755
0.494126 0.177302 0.161281
0.560975 0.181133 0.161576
0.628907 0.184662 0.161670
0.697784 0.187928 0.161589
0.767493 0.190963 0.161353
0.837936 0.193793 0.160981
0.909032 0.196442 0.160488
0.000000 0.179222 0.151120
0.006310 0.189294 0.153963
0.055536 0.198167 0.156208
0.108257 0.206051 0.157957
0.163895 0.213110 0.159294
0.221993 0.219472 0.160283
0.282184 0.225242 0.160975
0.344172 0.230504 0.161414
0.407712 0.235326 0.161632
0.472604 0.239766 0.161660
0.538679 0.243871 0.161520
0.605797 0.247681 0.161233
0.673837 0.251230 0.160815
0.742697 0.254547 0.160281
0.812291 0.257657 0.159643
0.882542 0.260580 0.158912
0.953385 0.263336 0.158098
0.000000 0.255392 0.158488
0.022360 0.263782 0.159691
0.076434 0.271352 0.160567
0.132956 0.278223 0.161162
0.191585 0.284491 0.161517
0.252041 0.290238 0.161663
0.314089 0.295529 0.161627
0.377536 0.300422 0.161432
0.442216 0.304961 0.161095
0.507990 0.309188 0.160633
0.574738 0.313137 0.160060
0.642358 0.316837 0.159387
0.710762 0.320312 0.158625
0.779872 0.323586 0.157782
0.849620 0.326678 0.156866
0.919949 0.329603 0.155884
0.990806 0.332378 0.154841
0.000000 0.332021 0.161318
0.036498 0.339225 0.161593
0.094076 0.345834 0.161670
0.153464 0.351922 0.161573
0.214444 0.357553 0.161324
0.276830 0.362779 0.160940
0.340467 0.367646 0.160437
0.405218 0.372192 0.159826
0.470969 0.376451 0.159120
0.537619 0.380451 0.158327
0.605080 0.384218 0.157457
0.673276 0.387773 0.156516
0.742141 0.391136 0.155511
0.811614 0.394325 0.154448
0.881644 0.397353 0.153331
0.952183 0.400234 0.152165
1.000000 0.402981 0.150955
0.000000 0.408916 0.161499
0.049487 0.415241 0.161199
0.109715 0.421113 0.160770
0.171335 0.426584 0.160226
0.234198 0.431695 0.159579
0.298177 0.436483 0.158841
0.363162 0.440981 0.158019
0.429055 0.445217 0.157122
0.495772 0.449214 0.156157
0.563239 0.452995 0.155130
0.631391 0.456578 0.154047
0.700168 0.459981 0.152912
0.769518 0.463217 0.151730
0.839397 0.466301 0.150504
0.908808 0.468927 0.149238
0.978027 0.471209 0.147935
1.000000 0.473372 0.146597
0.000657 0.485982 0.160002
0.061734 0.491627 0.159321
0.124035 0.496918 0.158551
0.187438 0.501889 0.157700
0.251839 0.506571 0.156778
0.317147 0.510989 0.155790
0.383281 0.515169 0.154742
0.450168 0.519130 0.153639
0.517746 0.522890 0.152487
0.585958 0.526467 0.151288
0.654752 0.529875 0.150047
0.722551 0.532615 0.148768
0.790786 0.535191 0.147452
0.859481 0.537634 0.146103
0.928604 0.539953 0.144722
0.998124 0.542157 0.143313
1.000000 0.544253 0.141878
0.010491 0.563161 0.157373
0.073474 0.568267 0.156426
0.137438 0.573088 0.155415
0.202299 0.577648 0.154347
0.267978 0.581969 0.153225
0.334408 0.586073 0.152056
0.401527 0.589976 0.150841
0.468762 0.593521 0.149586
0.535508 0.596537 0.148293
0.602797 0.599396 0.146964
0.670588 0.602109 0.145604
0.738845 0.604686 0.144213
0.807537 0.607137 0.142794
0.876633 0.609470 0.141349
0.946107 0.611694 0.139879
1.000000 0.613815 0.138387
1.000000 0.615840 0.136873
0.020325 0.640421 0.153944
0.084850 0.645088 0.152805
0.150180 0.649520 0.151618
0.216253 0.653736 0.150389
0.281909 0.657386 0.149119
0.347702 0.660687 0.147813
0.414080 0.663818 0.146473
0.481000 0.666790 0.145101
0.548424 0.669616 0.143699
0.616317 0.672306 0.142271
0.684647 0.674868 0.140816
0.753385 0.677311 0.139338
0.822505 0.679643 0.137838
0.891982 0.681871 0.136317
0.961795 0.684001 0.134777
1.000000 0.686039 0.133218
1.000000 0.687991 0.131642
0.030072 0.717712 0.149931
0.094276 0.721483 0.148648
0.159154 0.725058 0.147329
0.224656 0.728450 0.145977
0.290737 0.731673 0.144594
0.357358 0.734739 0.143182
0.424479 0.737659 0.141744
0.492069 0.740442 0.140281
0.560097 0.743097 0.138795
0.628533 0.745633 0.137287
0.697353 0.748056 0.135759
0.766533 0.750375 0.134211
0.836051 0.752595 0.132646
0.905887 0.754723 0.131064
0.976022 0.756762 0.129466
1.000000 0.758720 0.127853
1.000000 0.760599 0.126225
0.034543 0.793288 0.145477
0.099816 0.796752 0.144083
0.165662 0.800049 0.142662
0.232040 0.803191 0.141214
0.298915 0.806187 0.139743
0.366255 0.809047 0.138248
0.434031 0.811780 0.136733
0.502214 0.814394 0.135197
0.570781 0.816896 0.133643
0.639708 0.819292 0.132072
0.708974 0.821589 0.130484
0.778559 0.823793 0.128880
0.848445 0.825909 0.127262
0.918617 0.827942 0.125630
0.989057 0.829896 0.123984
1.000000 0.831775 0.122326
1.000000 0.833584 0.120657
0.039012 0.868898 0.140681
0.105198 0.872100 0.139201
0.171874 0.875158 0.137699
0.239010 0.878082 0.136176
0.306578 0.880880 0.134634
0.374550 0.883559 0.133073
0.442904 0.886126 0.131496
0.511617 0.888588 0.129902
0.580668 0.890952 0.128293
0.650038 0.893222 0.126669
0.719710 0.895403 0.125032
0.789668 0.897501 0.123382
0.859895 0.899520 0.121720
0.930379 0.901464 0.120046
1.000000 0.903337 0.118362
1.000000 0.905142 0.116667
1.000000 0.906883 0.114962
0.043482 0.944535 0.135617
0.110454 0.947511 0.134068
0.177851 0.950361 0.132501
0.245649 0.953094 0.130917
0.313825 0.955717 0.129318
0.382358 0.958235 0.127703
0.451226 0.960654 0.126075
0.520413 0.962981 0.124433
0.589901 0.965219 0.122778
0.659674 0.967373 0.121112
0.729717 0.969449 0.119434
0.800016 0.971449 0.117746
0.870559 0.973378 0.116047
0.941334 0.975239 0.114339
1.000000 0.977035 0.112622
1.000000 0.978770 0.110895
1.000000 0.980446 0.109161
0.047952 1.000000 0.130337
0.115608 1.000000 0.128731
0.183637 1.000000 0.127112
0.252019 1.000000 0.125478
0.320734 1.000000 0.123832
0.389765 1.000000 0.122173
0.459095 1.000000 0.120503
0.528709 1.000000 0.118821
0.598592 1.000000 0.117129
0.668732 1.000000 0.115427
0.739114 1.000000 0.113715
0.809728 1.000000 0.111994
0.880563 1.000000 0.110265
0.951608 1.000000 0.108527
1.000000 1.000000 0.106782
1.000000 1.000000 0.105029
1.000000 1.000000 0.103269
0.052422 1.000000 0.124880
0.120679 1.000000 0.123229
0.189266 1.000000 0.121566
0.258166 1.000000 0.119892
0.327362 1.000000 0.118206
0.396840 1.000000 0.116510
0.466586 1.000000 0.114804
0.536586 1.000000 0.113089
0.606829 1.000000 0.111365
0.677303 1.000000 0.109633
0.747998 1.000000 0.107893
0.818902 1.000000 0.106144
0.890007 1.000000 0.104389
0.961304 1.000000 0.102626
1.000000 1.000000 0.100787
1.000000 1.000000 0.096819
1.000000 1.000000 0.092906
0.000000 0.015406 0.097969
0.000000 0.015805 0.095976
0.000000 0.016203 0.093983
0.000000 0.016602 0.091990
0.000000 0.017001 0.089997
0.000000 0.017399 0.088004
0.000000 0.017798 0.093611
0.025525 0.018197 0.119196
0.097409 0.018595 0.138666
0.170749 0.018994 0.153852
0.245147 0.019392 0.165919
0.320340 0.019791 0.175647
0.396144 0.020190 0.183574
0.472429 0.020588 0.190085
0.549099 0.020987 0.195465
0.626081 0.021386 0.199923
0.703321 0.021784 0.203624
0.000000 0.016747 0.091264
0.000000 0.017146 0.089271
0.000000 0.017544 0.087278
