lc_editor/assets/luts/winter_trip.cube
TITLE "winter_trip"
LUT_3D_SIZE 2
0.000000 0.000000 0.040000
1.000000 0.000000 0.000000
0.000000 1.000000 0.040000
1.000000 1.000000 0.000000
0.000000 0.000000 1.000000
1.000000 0.000000 1.000000
0.000000 1.000000 1.000000
1.000000 1.000000 1.000000
